graph-outline.svg

<svg fill="currentColor" viewBox="0 0 24 24"><path d="M19.5 17c-.14 0-.26 0-.39.04L17.5 13.8c.45-.45.75-1.09.75-1.8a2.5 2.5 0 0 0-2.5-2.5c-.14 0-.25 0-.4.04L13.74 6.3c.47-.46.76-1.09.76-1.8a2.5 2.5 0 0 0-5 0c0 .7.29 1.34.76 1.79L8.65 9.54c-.15-.04-.26-.04-.4-.04a2.5 2.5 0 0 0-2.5 2.5c0 .71.29 1.34.75 1.79l-1.61 3.25C4.76 17 4.64 17 4.5 17a2.5 2.5 0 0 0 0 5A2.5 2.5 0 0 0 7 19.5c0-.7-.29-1.34-.76-1.79l1.62-3.25c.14.04.26.04.39.04s.25 0 .38-.04l1.63 3.25c-.47.45-.76 1.09-.76 1.79a2.5 2.5 0 0 0 5 0A2.5 2.5 0 0 0 12 17c-.13 0-.26 0-.39.04L10 13.8c.45-.45.75-1.09.75-1.8 0-.7-.29-1.33-.75-1.79l1.61-3.25c.13.04.26.04.39.04s.26 0 .39-.04L14 10.21a2.5 2.5 0 0 0 1.75 4.29c.13 0 .25 0 .38-.04l1.63 3.25c-.47.45-.76 1.09-.76 1.79a2.5 2.5 0 0 0 5 0 2.5 2.5 0 0 0-2.5-2.5m-15 3.5c-.55 0-1-.45-1-1s.45-1 1-1 1 .45 1 1-.45 1-1 1m8.5-1c0 .55-.45 1-1 1s-1-.45-1-1 .45-1 1-1 1 .45 1 1M7.25 12c0-.55.45-1 1-1s1 .45 1 1-.45 1-1 1-1-.45-1-1M11 4.5c0-.55.45-1 1-1s1 .45 1 1-.45 1-1 1-1-.45-1-1m3.75 7.5c0-.55.45-1 1-1s1 .45 1 1-.45 1-1 1-1-.45-1-1m4.75 8.5c-.55 0-1-.45-1-1s.45-1 1-1 1 .45 1 1-.45 1-1 1"/></svg>

<svg  viewBox="0 0 24 24" fill="currentColor"><path  d="M19.5 17C19.36 17 19.24 17 19.11 17.04L17.5 13.8C17.95 13.35 18.25 12.71 18.25 12C18.25 10.62 17.13 9.5 15.75 9.5C15.61 9.5 15.5 9.5 15.35 9.54L13.74 6.3C14.21 5.84 14.5 5.21 14.5 4.5C14.5 3.12 13.38 2 12 2S9.5 3.12 9.5 4.5C9.5 5.2 9.79 5.84 10.26 6.29L8.65 9.54C8.5 9.5 8.39 9.5 8.25 9.5C6.87 9.5 5.75 10.62 5.75 12C5.75 12.71 6.04 13.34 6.5 13.79L4.89 17.04C4.76 17 4.64 17 4.5 17C3.12 17 2 18.12 2 19.5C2 20.88 3.12 22 4.5 22S7 20.88 7 19.5C7 18.8 6.71 18.16 6.24 17.71L7.86 14.46C8 14.5 8.12 14.5 8.25 14.5C8.38 14.5 8.5 14.5 8.63 14.46L10.26 17.71C9.79 18.16 9.5 18.8 9.5 19.5C9.5 20.88 10.62 22 12 22S14.5 20.88 14.5 19.5C14.5 18.12 13.38 17 12 17C11.87 17 11.74 17 11.61 17.04L10 13.8C10.45 13.35 10.75 12.71 10.75 12C10.75 11.3 10.46 10.67 10 10.21L11.61 6.96C11.74 7 11.87 7 12 7C12.13 7 12.26 7 12.39 6.96L14 10.21C13.54 10.66 13.25 11.3 13.25 12C13.25 13.38 14.37 14.5 15.75 14.5C15.88 14.5 16 14.5 16.13 14.46L17.76 17.71C17.29 18.16 17 18.8 17 19.5C17 20.88 18.12 22 19.5 22S22 20.88 22 19.5C22 18.12 20.88 17 19.5 17M4.5 20.5C3.95 20.5 3.5 20.05 3.5 19.5S3.95 18.5 4.5 18.5 5.5 18.95 5.5 19.5 5.05 20.5 4.5 20.5M13 19.5C13 20.05 12.55 20.5 12 20.5S11 20.05 11 19.5 11.45 18.5 12 18.5 13 18.95 13 19.5M7.25 12C7.25 11.45 7.7 11 8.25 11S9.25 11.45 9.25 12 8.8 13 8.25 13 7.25 12.55 7.25 12M11 4.5C11 3.95 11.45 3.5 12 3.5S13 3.95 13 4.5 12.55 5.5 12 5.5 11 5.05 11 4.5M14.75 12C14.75 11.45 15.2 11 15.75 11S16.75 11.45 16.75 12 16.3 13 15.75 13 14.75 12.55 14.75 12M19.5 20.5C18.95 20.5 18.5 20.05 18.5 19.5S18.95 18.5 19.5 18.5 20.5 18.95 20.5 19.5 20.05 20.5 19.5 20.5Z"/></svg>
